X:18
T:[She's] Sweetest When She's Naked
Z:Jack Campin <http://www.campin.me.uk/>
S:Henry Atkinson's MS, 1690s, via MH
M:6/4
L:1/8
Q:3/4=60
K:A Minor
A2e3f (d2c/d/)e2|A2 c4   GE`DE G2|A2 c4    dcde`ga|e3 dcd e2 A4:|
A2d4   d3 e   d2|e2 g4   g3  a g2|ge`de g2 gede g2|agabab g2 e4 |
e2fedc dcde```ga|ge`dBAG E2 G4   |A2 c4    dcde`gd|efedcd e2 A4|]
